X: 1666
T: The Peacemaker
M:2/4
L:1/16
B:O'Neill's 1666
N:"collected by J. O'Neill"
K:G
A2 \
| GBdB cBAG | cBcd c2~B-A | GBdB cBAG | d2DDD2D2 |
| GBeB cBAG | cBcd efge | dedcBGAF | G2G2G2 :|
|: d2 \
| gfga gfed | cBcd c2c2 | agab agfe | f2ddd2e-f |
| gfga gfed | cBcd efge | dedc BGAF | G2G2G2 :|


